svgs/sharp-light/house-medical-circle-check.svg

<svg xmlns="http://www.w3.org/2000/svg" viewBox="0 0 640 512"><!--! Font Awesome Pro 6.6.0 by @fontawesome - https://fontawesome.com License - https://fontawesome.com/license (Commercial License) Copyright 2024 Fonticons, Inc. --><path d="M298.6 12L288 2.7 277.4 12 5.4 252l21.2 24L64 243l0 253 0 16 16 0 314.8 0c-12.9-9.1-24.5-19.9-34.6-32L96 480l0-265.3L288 45.3 458.7 196c12-2.6 24.5-4 37.3-4c2.3 0 4.5 0 6.7 .1L298.6 12zM336 240l0-48 0-16-16 0-64 0-16 0 0 16 0 48-48 0-16 0 0 16 0 64 0 16 16 0 48 0 0 48 0 16 16 0 64 0 2.9 0c-1.9-10.4-2.9-21.1-2.9-32c0-22.6 4.3-44.2 12-64l-12 0-16 0 0 16 0 48-32 0 0-48 0-16-16 0-48 0 0-32 48 0 16 0 0-16 0-48 32 0 0 48 0 16 16 0 28.5 0c7.6-11.7 16.6-22.4 26.7-32L336 240zm160 16a112 112 0 1 1 0 224 112 112 0 1 1 0-224zm0 256a144 144 0 1 0 0-288 144 144 0 1 0 0 288zm78.6-176L552 313.4l-11.3 11.3L480 385.4l-28.7-28.7L440 345.4 417.4 368l11.3 11.3 40 40L480 430.6l11.3-11.3 72-72L574.6 336z"/></svg>

<svg xmlns="http://www.w3.org/2000/svg" viewBox="0 0 640 512"><!--! Font Awesome Pro 6.4.2 by @fontawesome - https://fontawesome.com License - https://fontawesome.com/license (Commercial License) Copyright 2023 Fonticons, Inc. --><path d="M298.6 12L288 2.7 277.4 12 5.4 252l21.2 24L64 243V496v16H80 394.8c-12.9-9.1-24.5-19.9-34.6-32H96V214.7L288 45.3 458.7 196c12-2.6 24.5-4 37.3-4c2.3 0 4.5 0 6.7 .1L298.6 12zM336 240V192 176H320 256 240v16 48H192 176v16 64 16h16 48v48 16h16 64 2.9c-1.9-10.4-2.9-21.1-2.9-32c0-22.6 4.3-44.2 12-64H320 304v16 48H272V320 304H256 208V272h48 16V256 208h32v48 16h16 28.5c7.6-11.7 16.6-22.4 26.7-32H336zm160 16a112 112 0 1 1 0 224 112 112 0 1 1 0-224zm0 256a144 144 0 1 0 0-288 144 144 0 1 0 0 288zm78.6-176L552 313.4l-11.3 11.3L480 385.4l-28.7-28.7L440 345.4 417.4 368l11.3 11.3 40 40L480 430.6l11.3-11.3 72-72L574.6 336z"/></svg>
